assets/images/step_arrow.svg

<svg width="128" height="121" viewBox="0 0 128 121" fill="none" xmlns="http://www.w3.org/2000/svg">
<mask id="mask0_105_2" style="mask-type:luminance" maskUnits="userSpaceOnUse" x="0" y="0" width="128" height="121">
<path d="M0 0.624023H127.425V120.046H0V0.624023Z" fill="white"/>
</mask>
<g mask="url(#mask0_105_2)">
<path d="M116.581 27.542C114.914 28.5434 113.172 29.4159 111.371 30.152C110.846 30.376 110.31 30.572 109.765 30.742C109.599 30.8098 109.417 30.8265 109.241 30.7902C109.066 30.7539 108.905 30.6661 108.779 30.538C108.695 30.4534 108.629 30.3527 108.585 30.242C108.356 29.692 108.676 29.322 109.122 29.075C109.448 28.887 109.784 28.716 110.128 28.564C112.108 27.673 114.012 26.6228 115.822 25.424C116.362 25.051 116.928 24.718 117.516 24.426C118.429 24.002 119.211 24.241 119.548 25.196C120.676 28.381 122.652 31.093 124.523 33.831C124.737 34.112 124.925 34.413 125.082 34.731C125.21 34.9682 125.245 35.2445 125.18 35.5061C125.116 35.7676 124.956 35.9957 124.732 36.146C124.523 36.3174 124.256 36.4039 123.986 36.3885C123.716 36.3731 123.461 36.257 123.272 36.063C123.045 35.8624 122.838 35.6392 122.655 35.397C121.165 33.5801 119.836 31.6371 118.682 29.59C118.374 29.65 118.408 29.931 118.355 30.12C116.572 36.425 114.284 42.587 112.768 48.971C112.313 50.809 110.784 50.983 109.579 49.924C106.631 47.322 103.723 44.613 100.442 42.461C91.8043 36.773 82.5463 35.749 72.8743 39.295C63.7343 42.583 56.6193 48.517 51.2213 56.547C48.3183 60.873 46.1043 65.525 45.5063 70.784C45.1533 73.947 44.8983 77.134 44.4463 80.331C44.2433 81.808 43.9393 83.247 42.8943 84.438C42.688 84.723 42.4008 84.9394 42.0701 85.0592C41.7393 85.179 41.3802 85.1967 41.0393 85.11C38.9053 84.672 37.0633 83.527 35.1153 82.707C33.7923 82.152 32.5053 81.502 31.1433 81.028C27.6733 79.824 24.1673 80.003 20.7003 80.918C15.4903 82.294 10.8403 84.646 7.32929 88.873C6.04598 90.3345 5.07478 92.0428 4.47529 93.893C4.08629 95.2 3.13529 95.303 2.05529 94.503C0.402292 93.287 0.400292 91.42 1.46329 89C4.02529 83.316 8.27629 79.285 13.7833 76.45C18.0476 74.1915 22.8597 73.1737 27.6733 73.512C30.7533 73.7859 33.7475 74.6733 36.4793 76.122C37.812 76.7878 39.128 77.4864 40.4263 78.217C40.9243 78.497 41.0263 78.43 41.1093 77.879C41.4771 74.2379 42.2354 70.6469 43.3713 67.168C48.6613 52.123 58.3993 41.281 73.7813 36.185C84.6833 32.572 94.7763 34.883 103.934 41.603C105.927 43.059 107.827 44.653 109.75 46.209C110.185 46.557 110.363 46.575 110.526 45.972C111.874 41.106 113.714 36.362 115.277 31.548C115.712 30.265 116.122 28.975 116.581 27.542Z" fill="white"/>
</g>
</svg>

<svg width="128" height="121" viewBox="0 0 128 121" fill="none" xmlns="http://www.w3.org/2000/svg"><g clip-path="url(#a)"><path d="M116.581 27.542a38.207 38.207 0 0 1-5.21 2.61c-.525.224-1.061.42-1.606.59a.903.903 0 0 1-.986-.204.888.888 0 0 1-.194-.296c-.229-.55.091-.92.537-1.167.326-.188.662-.359 1.006-.511a40.17 40.17 0 0 0 5.694-3.14c.54-.373 1.106-.706 1.694-.998.913-.424 1.695-.185 2.032.77 1.128 3.185 3.104 5.897 4.975 8.635.214.281.402.582.559.9a1.085 1.085 0 0 1-.35 1.415 1.082 1.082 0 0 1-1.46-.083 4.503 4.503 0 0 1-.617-.666 40.566 40.566 0 0 1-3.973-5.807c-.308.06-.274.341-.327.53-1.783 6.305-4.071 12.467-5.587 18.851-.455 1.838-1.984 2.012-3.189.953-2.948-2.602-5.856-5.311-9.137-7.463-8.638-5.688-17.896-6.712-27.568-3.166-9.14 3.288-16.255 9.222-21.653 17.252-2.903 4.326-5.117 8.978-5.715 14.237-.353 3.163-.608 6.35-1.06 9.547-.203 1.477-.507 2.916-1.552 4.107a1.756 1.756 0 0 1-1.855.672c-2.134-.438-3.976-1.583-5.924-2.403-1.323-.555-2.61-1.205-3.972-1.679-3.47-1.204-6.976-1.025-10.443-.11-5.21 1.376-9.86 3.728-13.371 7.955a14.278 14.278 0 0 0-2.854 5.02c-.389 1.307-1.34 1.41-2.42.61C.402 93.287.4 91.42 1.463 89c2.562-5.684 6.813-9.715 12.32-12.55a25.811 25.811 0 0 1 13.89-2.938 23.176 23.176 0 0 1 8.806 2.61 90.618 90.618 0 0 1 3.947 2.095c.498.28.6.213.683-.338a51.032 51.032 0 0 1 2.262-10.711c5.29-15.045 15.028-25.887 30.41-30.983 10.902-3.613 20.995-1.302 30.153 5.418 1.993 1.456 3.893 3.05 5.816 4.606.435.348.613.366.776-.237 1.348-4.866 3.188-9.61 4.751-14.424.435-1.283.846-2.573 1.305-4.006Z" fill="#202B51"></path></g><defs><clipPath id="a"><path fill="#fff" transform="translate(0 .624)" d="M0 0h127.425v119.422H0z"></path></clipPath></defs></svg>
